X:1
T:When I Was a Brave Cowboy
M:2/4
L:1/4
K:C
 G| A G/2G/2| E2-| E E/2E/2| G E| C2-| C G| G A| c/2 c3/2-| c A|G/2-G/2E/2-E/2|\
 G2-| G G| A3/4- G/4 A| c2-| c A| G E| G2-| G A| G C| E2-| E E| F B,|\
 C2-| C||
